!!!!SEGMENT: pl-gd--ee-1638--003-025_marenzio-luca--madrigali-a-quatro-voci-vedi-ch-egli-amail-suon.krn
!!!cenid: 15xx:999
!!!COM: Marenzio, Luca
!!!COM-rismID: pe30003955
!!!CDT: ~1553-1599/08/22
!!!CNT: Italian
!!!GTL: Madrigali a quatro voci
!!!OTL: Vedi ch’egli amail suon
!!!OMV: 025
!!!PDT: 1587
!!!AGN:
!!!SMS-siglum: PL-GD
!!!SMS-shelfmark: Ee 1638
!!!SMS-shelfwork: 003-025 G
!!!SMS-variant:
!!!SMS-altvar:
!!!NIFC-rismSourceID: 1001202747
!!!NIFC-rismChildID: 990039322
!!!NIFC-islandoraID: pl-gd:57883
!!!URL-pdf-islandora: https://repozytorium.nifc.pl/islandora/object/pl-gd%3A57883/datastream/PDF/view
!!!URL-scan: https://polish.musicsources.pl/pl/lokalizacje/galeria/klocki-introligatorskie/655 @EN{Scan on Polish Music Sources Website} @PL{Skany w portalu Dziedzictwo Muzyki Polskiej w otwartym dostępie}
!!!IIIF: https://repozytorium.nifc.pl/islandora/object/pl-gd%3A57883/datastream/IIIF/view
!!!ONB-nifc: UWAGA: zbiór na stronach: Canto: s. 637-653, Alto: s. do 486-501, Tenore: s. do 334-349, Bassus: s. do 182-197. Uwaga: utwory podzielone wg tytułów w spisach treści dostępnych na końcu każdej księgi głosowej.
!!!AIN: 1 alto 1 bass 1 soprn 1 tenor
!!!key: F
!!!filter-modern: sic -sq | shed -e "s/TX(.*):t=P:/tx$1:t=P:/LG" | shed -k -e "s/LO:N:vis/LO:n:vis:/L" | shed -e "s/^(\d+[\/\\]right)/$1yy/I;s/^(\d+[\/\\]left)/$1yy/I" | shed -e "s/-//B" | shed -e "s/^custos:/Xcustos:/I" | shed -k -e "s/LO:N:acc/LO:n:acc:/L" | autostem -r | tie -s  | humtr -p | modori -m
**kern	**text	**kern	**text	**kern	**text	**kern	**text
*part4	*part4	*part3	*part3	*part2	*part2	*part1	*part1
*staff4	*staff4	*staff3	*staff3	*staff2	*staff2	*staff1	*staff1
*I"BASSO	*	*I"TENORE	*	*I"ALTO	*	*I"CANTO	*
*I'B	*	*I'T	*	*I'A	*	*I'S	*
*mI"Basso	*	*mI"Tenore	*	*mI"Alto	*	*mI"Soprano	*
*ICvox	*	*ICvox	*	*ICvox	*	*ICvox	*
*Ibass	*	*Itenor	*	*Ialto	*	*Isoprn	*
*clefF3	*	*clefC3	*	*clefC2	*	*clefG2	*
*mclefF4	*	*mclefGv2	*	*mclefG2	*	*	*
*k[b-]	*	*k[b-]	*	*k[b-]	*	*k[b-]	*
*F:	*	*F:	*	*F:	*	*F:	*
*M2/1	*	*M2/1	*	*M2/1	*	*M2/1	*
*met(C)	*	*met(C)	*	*met(C)	*	*met(C)	*
*mmet(c)	*	*mmet(c)	*	*mmet(c)	*	*mmet(c)	*
=1-	=1-	=1-	=1-	=1-	=1-	=1-	=1-
*xywh-#194:4594,557,3395,881	*	*xywh-#346:4669,598,3472,783	*	*xywh-#498:4637,552,3301,817	*	*xywh-#650:4669,543,3401,869	*
!LO:TX:t=P:problem: podwójnie zapisany bemol: BB- B-	!	!	!	!LO:TX:t=P:problem: podwójnie zapisany bemol: B- b-	!	!	!
!	!	!LO:TX:a:t=Seconda parte.:mod=	!LO:MO:mod=Ve-	!LO:TX:a:t=Seconda parte.:mod=	!	!LO:TX:a:t=Seconda parte.:mod=	!
00r	.	1c	VE-	0r	.	1r	.
!	!	!	!	!	!	!	!LO:MO:mod=Ve-
.	.	1A	-di	.	.	1cc	VE-
=2-	=2-	=2-	=2-	=2-	=2-	=2-	=2-
!	!	!	!	!	!LO:MO:mod=Ve-	!	!
.	.	00r	.	1f	VE-	1a	-di
.	.	.	.	1d	-di	2r	.
.	.	.	.	.	.	2ff\	ch`e-
=3-	=3-	=3-	=3-	=3-	=3-	=3-	=3-
00r	.	.	.	2r	.	4ee\	-gli a-
.	.	.	.	.	.	4cc\	-ma il
!	!	!	!	!	!	!	!LO:MO:mod=suon
.	.	.	.	2b-\	ch`e-	4dd\	ſuo(n)
.	.	.	.	.	.	4ee\	de
.	.	.	.	4a\	-gli a-	4ff\	la
.	.	.	.	4f\	-ma il	4ff\	ce-
!	!	!	!	!	!LO:MO:mod=suon	!	!
.	.	.	.	4g\	ſuo(n)	2ee\	-rui-
.	.	.	.	4a\	de	.	.
=4-	=4-	=4-	=4-	=4-	=4-	=4-	=4-
.	.	1r	.	4b-\	la	4.dd\	-ce
.	.	.	.	4b-\	ce-	.	.
!	!	!	!	!	!	!	!LO:MO:mod=per-
.	.	.	.	.	.	8ee\	Per-
.	.	.	.	2a\	-rui-	2.ff\	-coſ-
.	.	1c	Ve-	4.g\	-ce	.	.
.	.	.	.	.	.	8ee\	.
!	!	!	!	!	!LO:MO:mod=per-	!	!
.	.	.	.	8f\	Per-	8dd\	.
!	!	!	!	!	!	!LO:SIC:v:t=custos ff	!
.	.	.	.	2g\	-coſ-	2ee\	.
!	!	!	!	!	!	!LO:LB:g=original	!
=5-	=5-	=5-	=5-	=5-	=5-	=5-	=5-
*	*	*	*	*	*	*xywh-#650:4593,1206,3466,706	*
!	!LO:MO:mod=Ve-	!	!	!	!	!	!
1F	VE-	1A	-di	1c	-ſa	0ff	-ſa
1D	-di	2r	.	2r	.	.	.
!	!	!	!	!LO:SIC:v:t=custos g	!	!	!
.	.	2f\	ch`e-	2a\	ch`e-	.	.
!	!	!	!	!LO:LB:g=original	!	!	!
=6-	=6-	=6-	=6-	=6-	=6-	=6-	=6-
*	*	*	*	*xywh-#498:4586,1206,3331,664	*	*	*
2r	.	4e\	-gli a-	4g\	-gli a-	2r	.
.	.	4c/	-ma il	4e/	-ma il	.	.
!	!	!	!LO:MO:mod=suon	!	!LO:MO:mod=suon	!	!
2B-\	ch`e-	4d\	ſuo(n)	4f\	ſuo(n)	2dd\	ch`e-
.	.	4e\	de	4g\	de	.	.
4A\	-gli a-	4f\	la	4a\	la	4cc\	-gli a-
4F/	-ma il	4f\	ce-	4a\	ce-	4a/	-ma il
!	!LO:MO:mod=suon	!	!LO:MO:mod=-rvi-	!	!LO:MO:mod=-rvi-	!	!LO:MO:mod=suon
4G\	ſuo(n)	2e\	-rui-	2g\	-rui-	4b-/	ſuo(n)
4A\	de	.	.	.	.	4cc\	de
=7-	=7-	=7-	=7-	=7-	=7-	=7-	=7-
4B-\	la	4.d\	-ce	4.f\	-ce	4dd\	la
4B-\	ce-	.	.	.	.	4dd\	ce-
!	!	!	!LO:MO:mod=per-	!	!LO:MO:mod=per-	!	!
.	.	8e\	Per-	8g\	Per-	.	.
!	!LO:MO:mod=-rvi-	!	!	!	!	!	!LO:MO:mod=-rvi-
2A\	-rui-	2f\	-coſ-	2a\	-coſ-	2cc\	-rui-
!	!	!LO:SIC:v:t=custos f	!	!	!	!	!
4.G\	-ce	1B-	-ſa	4d/	-ſa	4.b-/	-ce
!	!	!	!	!	!LO:MO:mod=per-	!	!
.	.	.	.	4g\	Per-	.	.
!	!LO:MO:mod=per-	!	!	!	!	!	!LO:MO:mod=per-
8A\	Per-	.	.	.	.	8cc\	Per-
2B-\	-coſ-	.	.	4.f\	-coſ-	2dd\	-coſ-
.	.	.	.	8g\	.	.	.
!	!	!LO:LB:g=original	!	!	!	!	!
=8-	=8-	=8-	=8-	=8-	=8-	=8-	=8-
*	*	*xywh-#346:4720,1226,3348,721	*	*	*	*	*
!LO:SIC:v:t=custos F	!	!	!	!	!	!	!
1F	-ſa	2r	.	1a	.	1cc	-ſa
.	.	2f\	e	.	.	.	.
!LO:LB:g=original	!	!	!	!	!	!	!
*xywh-#194:4641,1203,3372,752	*	*	*	*	*	*	*
2r	.	2f\	le	4.a\	-ſa	2r	.
.	.	.	.	8b-\	.	.	.
2F/	e	2f\	lu-	2cc\	.	2a/	e
=9-	=9-	=9-	=9-	=9-	=9-	=9-	=9-
!	!	!	!	!	!	!LO:N:acc=#	!
2G\	le	1e	-ſin-	0r	.	2bn/	le
2A\	lu-	.	.	.	.	2cc#X\	lu-
2D/	-ſin-	1d	-ghe	.	.	2dd\	-ſin-
4D/	-ghe	.	.	.	.	4a/	-ghe
4d\	e	.	.	.	.	4ff\	e
=10-	=10-	=10-	=10-	=10-	=10-	=10-	=10-
2d\	le	0r	.	2r	.	2ff\	le
!	!	!	!	!	!	!LO:SIC:v:t=custos ee	!
2d\	lu-	.	.	2f\	e	2ff\	lu-
!	!	!	!	!	!	!LO:LB:g=original	!
*	*	*	*	*	*	*xywh-#650:4582,1727,3466,728	*
1c	-ſin-	.	.	2g\	le	1ee	-ſin-
!	!	!	!	!LO:SIC:v:t=custos d	!	!	!
.	.	.	.	2a\	lu-	.	.
!	!	!	!	!LO:LB:g=original	!	!	!
=11-	=11-	=11-	=11-	=11-	=11-	=11-	=11-
*	*	*	*	*xywh-#498:4575,1707,3382,694	*	*	*
0B-	-ghe	1r	.	2d/	-ſin-	1dd	-ghe
.	.	.	.	4d/	-ghe	.	.
.	.	.	.	4f\	e	.	.
.	.	2r	.	2f\	le	2r	.
.	.	2B-/	e	2f\	lu-	2dd\	e
=12-	=12-	=12-	=12-	=12-	=12-	=12-	=12-
0r	.	2c/	le	1a	-ſin-	2ee\	le
.	.	2d\	lu-	.	.	2ff#X\	lu-
.	.	2G/	-ſin-	1g	-ghe	2gg\	-ſin-
.	.	2G/	-ghe	.	.	2dd\	-ghe
=13-	=13-	=13-	=13-	=13-	=13-	=13-	=13-
4r	.	4r	.	4r	.	4r	.
!	!	!	!	!	!	!LO:N:acc=#	!
2G\	e	2d\	e	2g\	e	2bn/	e
4E/	tra	4c/	tra	4g\	tra	4ccny\	tra
1F	ſe	1c	ſe	1a	ſe	1cc	ſe
=14-	=14-	=14-	=14-	=14-	=14-	=14-	=14-
1F	go-	1c	go-	1f	go-	1a	go-
2C/	-de	4c/	-de	2e/	-de	2g/	-de
.	.	4g\	Se	.	.	.	.
2c\	Se	4e\	la	4r	.	4r	.
!	!	!	!LO:MO:mod=sua	!	!	!	!
.	.	4a\	ua-	4e/	Se	4cc\	Se
=15-	=15-	=15-	=15-	=15-	=15-	=15-	=15-
!	!	!	!LO:MO:null:mod=va-	!	!	!	!
2d\	la	8a\	.	2.f\	la	4a/	la
.	.	8g\	.	.	.	.	.
!	!	!	!	!	!	!	!LO:MO:mod=sua
.	.	8f\	.	.	.	4dd\	ſuà
.	.	8e\	.	.	.	.	.
!	!LO:MO:mod=sua	!	!	!	!	!	!LO:MO:mod=va-
2B-\	ſuà	4d\	.	.	.	8dd\	ua-
.	.	.	.	.	.	8cc\	.
!	!	!LO:SIC:v:t=custos g	!	!	!	!	!
.	.	4g\	-ga	4d/	ſua	8b-y/	.
!	!	!	!	!	!	!LO:SIC:v:t=custos g	!
.	.	.	.	.	.	8g/	.
!	!	!LO:LB:g=original	!	!	!	!LO:LB:g=original	!
*	*	*xywh-#346:4679,1824,3369,607	*	*	*	*xywh-#650:4658,2282,3379,695	*
!	!LO:MO:mod=va-	!	!	!	!LO:MO:mod=va-	!	!
2c\	ua-	8g\	man	2.e/	ua-	4g/	.
.	.	8f\	.	.	.	.	.
.	.	8e\	.	.	.	4cc\	-ga
.	.	8d\	.	.	.	.	.
2A\	-ga	4c/	.	.	.	8cc\	man
.	.	.	.	.	.	8b-/	.
.	.	4f\	l`a-	4c/	-ga	8a/	.
.	.	.	.	.	.	8g/	.
=16-	=16-	=16-	=16-	=16-	=16-	=16-	=16-
2B-\	mã	8f\	-dor-	4d/	man	4f/	.
.	.	8e\	.	.	.	.	.
.	.	8d\	.	4g\	l`a-	4b-/	l`a-
.	.	8c\	.	.	.	.	.
!LO:SIC:v:t=custos A	!	!	!	!	!	!	!
2G\	l`a-	4d\	.	8g\	-dor-	8b-/	-dor
.	.	.	.	8f\	.	8a/	.
.	.	4G/	-na	8e/	.	8g/	.
!	!	!	!	!LO:SIC:v:t=custos c	!	!	!
.	.	.	.	8d/	.	8f/	.
!LO:LB:g=original	!	!	!	!LO:LB:g=original	!	!	!
*xywh-#194:4606,1767,3407,716	*	*	*	*xywh-#498:4545,2289,3474,684	*	*	*
2A\	-dor-	4r	.	4c/	.	2e/	.
.	.	4e\	e	4cc\	na e	.	.
2F/	-na e	4.a\	co-	4.cc\	co-	2f/	na
.	.	16g\	.	16b-\	.	.	.
.	.	16f\	.	16a\	.	.	.
=17-	=17-	=17-	=17-	=17-	=17-	=17-	=17-
8c\	co-	4e\	.	4g\	.	4r	.
8B-\	.	.	.	.	.	.	.
8A\	.	8f\	.	8a\	.	4cc\	e
8G\	.	8g\	.	8b-\	.	.	.
8F\	.	4.a\	.	4.cc\	.	4.ffny\	co-
8G\	.	.	.	.	.	.	.
8A\	.	.	.	.	.	.	.
8B-\	.	16g\	.	16b-\	.	16ee\	.
!	!	!LO:SIC:v:t=custos e	!	!	!	!	!
.	.	16f\	.	16a\	.	16dd\	.
!	!	!LO:LB:g=original	!	!	!	!	!
*	*	*xywh-#346:4700,2308,3369,690	*	*	*	*	*
1c	.	4e\	.	4g\	.	1cc	.
.	.	2f\	.	4f\	.	.	.
.	.	.	.	2g\	.	.	.
.	.	4e\	.	.	.	.	.
=18-	=18-	=18-	=18-	=18-	=18-	=18-	=18-
1F	-me	1f	-me	1a	me	1cc	me
1r	.	4r	.	4r	.	2g/	E
.	.	2c/	E	2e/	E	.	.
!	!	!	!	!	!	!LO:SIC:v:t=custos b	!
.	.	.	.	.	.	2a/	men-
!	!	!	!LO:MO:mod=men-	!	!	!	!
.	.	2d\	me(n)t-	2f\	men-	.	.
!	!	!	!	!	!	!LO:LB:g=original	!
=19-	=19-	=19-	=19-	=19-	=19-	=19-	=19-
!	!	!	!	!	!	!LO:N:acc=#	!
*	*	*	*	*	*	*xywh-#650:4625,2847,3433,695	*
0r	.	.	.	.	.	2bn/	-tre
.	.	2e\	-tre	2g\	-tre	.	.
.	.	.	.	.	.	2cc\	por-
.	.	2f\	por-	2a\	por-	.	.
.	.	.	.	.	.	2dd\	-ta al
!	!	!	!	!LO:N:acc=#	!	!	!
.	.	2g\	-ta al	2bn\	-ta al	.	.
.	.	.	.	.	.	2ee\	ciel
.	.	2a\	ciel	2cc\	ciel	.	.
=20-	=20-	=20-	=20-	=20-	=20-	=20-	=20-
1r	.	.	.	.	.	2ff\	del
.	.	4f\	del	4a\	del	.	.
!	!	!	!	!LO:N:acc=#	!	!	!
.	.	4g\	tuo	4bn\	ſuo	4dd\	ſuo
!	!	!	!	!LO:SIC:v:t=custos b	!	!	!
.	.	4a\	bel	4cc\	bel	4cc\	bel
!	!	!	!	!LO:LB:g=original	!	!	!
!	!	!	!	!LO:N:acc=#	!	!	!
*	*	*	*	*xywh-#498:4596,2811,3352,705	*	*	*
2r	.	2g\	no-	2bn\	no-	2dd\	no-
4r	.	4g\	-me	4b\	-me	2dd\	-me
4G\	Il	4d\	Il	4b\	Il	.	.
=21-	=21-	=21-	=21-	=21-	=21-	=21-	=21-
2.c\	ric-	2.e\	ric-	4cc\	ric-	4r	.
.	.	.	.	8c/	-co in-	4g/	Il
.	.	.	.	8d/	.	.	.
.	.	.	.	8e/	.	4a/	ric-
.	.	.	.	8f\	.	.	.
4B-\	-co in-	4d\	-co in-	2g\	.	4b-y/	-co in-
1A	-car-	2c/	-car-	.	.	1cc	-car-
.	.	.	.	8f\	car-	.	.
.	.	.	.	8e\	.	.	.
.	.	2c/	-co	2f#X\	.	.	.
=22-	=22-	=22-	=22-	=22-	=22-	=22-	=22-
!	!	!	!	!	!	!LO:N:acc=#	!
2G\	-co	4r	.	2g\	-co	1bn	-co
.	.	4d\	e	.	.	.	.
!	!	!	!LO:MO:mod=di	!	!	!	!
4r	.	1g	di tua	4r	.	.	.
!LO:SIC:v:t=custos c	!LO:MO:mod=e	!	!	!	!	!	!
4G\	è	.	.	4d/	e	.	.
1c	di	.	.	1e	di	1r	.
!	!	!	!LO:MO:mod=tua	!	!	!	!
.	.	1g\	chia-	.	.	.	.
!LO:LB:g=original	!	!	!	!	!	!	!
=23-	=23-	=23-	=23-	=23-	=23-	=23-	=23-
*xywh-#194:4641,2319,3360,705	*	*	*	*	*	*	*
1c	tua	.	.	1e	tua	0r	.
!	!	!LO:SIC:v:t=custos g	!LO:MO:mod=chia-	!	!	!	!
.	.	2g\	-ra	.	.	.	.
!	!	!LO:LB:g=original	!	!	!	!	!
*	*	*xywh-#346:4710,2916,3462,638	*	*	*	*	*
!	!	!	!LO:MO:mod=-ra	!	!	!	!
2c\	chia-	2g\	lo-	2e/	chia-	.	.
!	!	!	!LO:MO:null:mod=lo-	!	!	!	!
2c\	-ra	2.a\	.	2e/	-ra	.	.
=24-	=24-	=24-	=24-	=24-	=24-	=24-	=24-
1d	lo-	.	.	1fny	lo-	1r	.
.	.	4g\	.	.	.	.	.
.	.	2f\	.	.	.	.	.
!	!	!	!	!	!	!	!LO:MO:mod=e
4c\	-de	4e\	-de	2g\	-de	1cc	è
4c\	Si	4e\	Si	.	.	.	.
!	!	!	!	!LO:SIC:v:t=custos a	!	!	!
4A\	tien	4c/	tien	2r	.	.	.
!	!LO:MO:mod=più	!	!LO:MO:mod=più	!	!	!	!
4B-\	piu	4d\	piu	.	.	.	.
!	!	!	!	!LO:LB:g=original	!	!	!
=25-	=25-	=25-	=25-	=25-	=25-	=25-	=25-
*	*	*	*	*xywh-#498:4586,3383,3372,715	*	*	*
8c\	d`E-	8e\	d`E-	4r	.	2cc\	di
8B-\	.	8d\	.	.	.	.	.
8A\	.	8c/	.	4a\	e	.	.
8G\	.	8B-/	.	.	.	.	.
4F/	.	4A/	.	2a\	di	2cc\	tua
4A\	to o	4c/	to o	.	.	.	.
4F/	di	4A/	di	2a\	tua	2cc\	chia-
4G\	Pi-	4B-/	Pi-	.	.	.	.
!	!	!	!	!	!	!LO:SIC:v:t=custos dd	!
8A\	-ro o	8c/	-ro o	1a\	chia-	2cc\	-ra
8G\	.	8B-/	.	.	.	.	.
8F/	.	8A/	.	.	.	.	.
8E/	.	8G/	.	.	.	.	.
!	!	!	!	!	!	!LO:LB:g=original	!
=26-	=26-	=26-	=26-	=26-	=26-	=26-	=26-
*	*	*	*	*	*	*xywh-#650:4647,3357,3357,684	*
1D	.	2F/	.	.	.	1dd	lo-
!	!	!	!	!LO:N:acc=#	!	!	!
.	.	2f\	fe-	2bn\	-ra	.	.
!LO:SIC:v:t=custos F	!	!LO:SIC:v:t=custos e	!	!	!	!	!
0.C	fe-	1e	-li-	1cc	lo-	4g/	-de
.	.	.	.	.	.	4gg\	Si
.	.	.	.	.	.	4ee\	tien
!	!	!	!	!	!	!	!LO:MO:mod=più
.	.	.	.	.	.	4ff\	piu
!LO:LB:g=original	!	!LO:LB:g=original	!	!	!	!	!
=27-	=27-	=27-	=27-	=27-	=27-	=27-	=27-
*xywh-#194:4606,2895,3431,658	*	*xywh-#346:4700,3442,3369,731	*	*	*	*	*
.	.	2e\	-ce	1g	-de	8gg\	d`E-
.	.	.	.	.	.	8ff\	.
.	.	.	.	.	.	8ee\	.
.	.	.	.	.	.	8dd\	.
.	.	4r	.	.	.	4cc\	.
.	.	4g\	Si	.	.	4ee\	-to o
.	.	4e\	tien	1r	.	4cc\	di
!	!	!	!LO:MO:mod=più	!	!	!	!
.	.	4f\	piu	.	.	4dd\	Pi-
.	.	8g\	d`E-	.	.	8ee\	-roo
.	.	8f\	.	.	.	8dd\	.
.	.	8e\	.	.	.	8cc\	.
.	.	8d\	.	.	.	8b-y\	.
=28-	=28-	=28-	=28-	=28-	=28-	=28-	=28-
0.F	-li-	4c/	.	4r	.	1.a	.
.	.	4A/	-to o	4cc\	Si	.	.
.	.	4F/	di	4a\	tien	.	.
!	!	!	!	!	!LO:MO:mod=più	!	!
.	.	4G/	Pi-	4b-y\	piu	.	.
.	.	8A/	-roo	8cc\	d`E-	.	.
.	.	8G/	.	8b-\	.	.	.
.	.	8A/	.	8a\	.	.	.
.	.	8B-/	.	8g\	.	.	.
.	.	2c/	.	4f\	-to	4r	.
.	.	.	.	4a\	o	4cc\	o
=29-	=29-	=29-	=29-	=29-	=29-	=29-	=29-
.	.	2c/	fe-	4f\	di	4a/	di
.	.	.	.	4g\	Pi-	4b-/	Pi-
.	.	2.f\	-li-	8a\	-roo	4cc\	-roo
.	.	.	.	8g\	.	.	.
!	!	!	!	!	!	!LO:SIC:v:t=custos b	!
.	.	.	.	8f\	.	4dd\	fe-
!	!	!	!	!LO:SIC:v:t=custos d	!	!	!
.	.	.	.	8e\	.	.	.
!	!	!	!	!	!	!LO:LB:g=original	!
!	!	!	!	!LO:LB:g=original	!	!LO:N:acc=#	!
*	*	*	*	*xywh-#498:4606,3925,3352,623	*	*xywh-#650:4658,3901,3368,652	*
0G	-ce	.	.	4d/	.	2bn/	-li-
.	.	4e\	.	4g\	fe-	.	.
.	.	4e\	.	2.g\	-li-	2.cc\	.
.	.	8d\	.	.	.	.	.
.	.	8c\	.	.	.	.	.
=30-	=30-	=30-	=30-	=30-	=30-	=30-	=30-
!	!	!LO:SIC:v:t=custos c	!	!	!	!	!
.	.	1d	.	.	.	.	.
!	!	!	!	!	!	!LO:SIC:v:s=8b	!
.	.	.	.	8f\	.	8b-y/	.
.	.	.	.	8e\	.	8a/	.
!	!	!	!	!	!	!LO:N:acc=#	!
.	.	.	.	2d/	.	2b/	.
!	!	!LO:LB:g=original	!	!	!	!	!
*	*	*xywh-#346:4679,3947,3400,680	*	*	*	*	*
4r	.	4c/	-ce	1e	-ce	0.cc	-ce
4c\	Si	4e\	Si	.	.	.	.
!	!	!	!LO:MO:mod=tien	!	!	!	!
4A\	tien	4c/	tie(n)	.	.	.	.
!	!LO:MO:mod=più	!	!LO:MO:mod=più	!	!	!	!
4B-\	piu	4d\	piu	.	.	.	.
=31-	=31-	=31-	=31-	=31-	=31-	=31-	=31-
8c\	d`E-	8e\	d`E-	4r	.	.	.
8B-\	.	8d\	.	.	.	.	.
8A\	.	8c/	.	4a\	e	.	.
8G\	.	8B-/	.	.	.	.	.
4F/	.	4A/	.	2a\	di	.	.
4A\	-to	4c/	-to	.	.	.	.
4F/	o di	4A/	o di	2a\	tua	.	.
4G\	Pi-	4B-/	Pi-	.	.	.	.
8A\	-roo	8c/	-roo	1a\	chia-	.	.
8G\	.	8B-/	.	.	.	.	.
8F/	.	8A/	.	.	.	.	.
8E/	.	8G/	.	.	.	.	.
=32-	=32-	=32-	=32-	=32-	=32-	=32-	=32-
1D	.	2F/	.	.	.	1r	.
!	!	!	!	!LO:N:acc=#	!	!	!
.	.	2f\	fe-	2bn\	-ra	.	.
0.C	fe-	1e	-li-	1cc	lo-	4r	.
.	.	.	.	.	.	4gg\	Si
.	.	.	.	.	.	4ee\	tien
!	!	!	!	!	!	!	!LO:MO:mod=più
.	.	.	.	.	.	4ff\	piu
=33-	=33-	=33-	=33-	=33-	=33-	=33-	=33-
.	.	2e\	-ce	1g	-de	8gg\	d`E
.	.	.	.	.	.	8ff\	.
.	.	.	.	.	.	8ee\	.
.	.	.	.	.	.	8dd\	.
.	.	4r	.	.	.	4cc\	.
!	!	!LO:SIC:v:t=custos e	!	!	!	!	!
.	.	4g\	Si	.	.	4ee\	to o
!	!	!LO:LB:g=original	!	!	!	!	!
*	*	*xywh-#346:4720,4482,3338,741	*	*	*	*	*
.	.	4e\	tien	2g\	Si	4cc\	di
!	!	!	!LO:MO:mod=più	!	!	!	!
.	.	4f\	piu	.	.	4dd\	Pi-
.	.	8g\	d`E-	4e/	tien	8ee\	-roo
.	.	8f\	.	.	.	8dd\	.
!	!	!	!	!	!LO:MO:mod=più	!	!
.	.	8e\	.	4g\	piu	8cc\	.
!	!	!	!	!	!	!LO:SIC:v:t=custos a	!
.	.	8d\	.	.	.	8b-y\	.
!	!	!	!	!	!	!LO:LB:g=original	!
=34-	=34-	=34-	=34-	=34-	=34-	=34-	=34-
*lig	*	*	*	*	*	*xywh-#650:4615,4379,3477,771	*
0F	-li-	4c/	.	8f\	d`E	2a/	.
.	.	.	.	8g\	.	.	.
.	.	4c/	to o	8a\	.	.	.
.	.	.	.	8b-y\	.	.	.
.	.	4.A/	di	4cc\	.	4r	.
!	!	!	!	!LO:SIC:v:t=custos f	!	!	!
.	.	.	.	4a\	to o	4cc\	o
.	.	8B-/	Pi-	.	.	.	.
!	!	!	!	!LO:LB:g=original	!	!	!
*	*	*	*	*xywh-#498:4586,4456,3423,654	*	*	*
.	.	2c/	-roo	4f\	di	4a/	di
.	.	.	.	4g\	Pi-	4b-/	Pi-
.	.	2f\	fe-	8a\	-roo	4cc\	-roo
.	.	.	.	8g\	.	.	.
.	.	.	.	8f\	.	4dd\	fe-
.	.	.	.	8e\	.	.	.
=35-	=35-	=35-	=35-	=35-	=35-	=35-	=35-
!	!	!	!	!	!	!LO:N:acc=#	!
0G	.	4f\	-li-	4d/	.	2bn/	-li-
.	.	4e\	.	4g\	fe-	.	.
.	.	4e\	.	2.g\	-li-	2.cc\	.
.	.	8d\	.	.	.	.	.
.	.	8c\	.	.	.	.	.
.	.	1d	.	.	.	.	.
.	.	.	.	8f\	.	8b/	.
.	.	.	.	8e\	.	8a/	.
!	!	!	!	!	!	!LO:N:acc=#	!
.	.	.	.	2d/	.	2bn/	.
*Xlig	*	*	*	*	*	*	*
=36-	=36-	=36-	=36-	=36-	=36-	=36-	=36-
!	!LO:MO:mod=-ce.	!	!LO:MO:mod=-ce.	!	!	!	!
0C	-ce	0c	-ce	0e	ce.	0cc	-ce.
==	==	==	==	==	==	==	==
*-	*-	*-	*-	*-	*-	*-	*-
!!!system-decoration: [(*)]
!!!ENC: Filip Voros
!!!END: 2022-06-27
!!!ENC: Jan Barakat
!!!END: 2022-07-13
!!!ENC-iiif: Zuzanna Daniec
!!!END-iiif: 2022-09-22
!!!ENC-modern: Andrzej Borzym
!!!END-modern: 2022-11-05
!!!YEC: Copyright 2022 Narodowy Instytut Fryderyka Chopina (https://polishscores.org)
!!!YEM: License CC-BY-4.0 (https://creativecommons.org/licenses/by/4.0)
